X: 20492
T: For the Love of Gean
T: For the Love of Jean
N: The name is "Jean" in the index, but "Gean" in the tune, crossed out and "Mely" handwritten.
%R: minuet, triple hornpipe
B: James Oswald "The Caledonian Pocket Companion" v.2 p.49 #2
Z: 2019 John Chambers <jc:trillian.mit.edu>
M: 3/2
L: 1/8
K: G
%%slurgraces 1
%%graceslurs 1
|: "_Brisk"\
G2(FE) D2G2 A4 | F2 A4 d2 {G2}F4 |\
G2(FE) D2G2 ABcd | B2(AG) (BA)(GF) G4 ::\
GABc d2G2 TB2(GA) | F2 A4 d2 F4 |\
GABc dcBA Bcd2 |
g2G2 FGAF G4 ::\
g2fe d2g2 a4 | fgab c'abc' {g2}f4 |\
g2fe defg abc'a | b2ag fgaf g4 ::\
GABc dBgd B2AG |
FGAB cAeG {G2}F4 |\
GABc dcBd cBAc | BAGB AGFA G4 ::\
G2 D4 G2 FGAB | cAdB ecTBA {G2}F4 |
GDEF GABc dBec | dBcA BGAF G4 ::\
G2 g4 fg efde | cdBc ABGA TF4 |\
G2 g4 (fe) fgaf | g2G2 FGAF G4 :|


